_includes/icons/color-new-company.svg

<svg fill="#666" height="50" viewBox="0 0 48 48" width="50" xmlns="http://www.w3.org/2000/svg"><path d="m12 3h24v6h-24z" fill="#29b6f6"/><path d="m40 45h-32v-37c0-1.105.895-2 2-2h28c1.105 0 2 .895 2 2z" fill="#81d4fa"/><path d="m8 43h32v2h-32z" fill="#29b6f6"/><g fill="#0288d1"><path d="m12 9h6v4h-6z"/><path d="m30 9h6v4h-6z"/><path d="m21 9h6v4h-6z"/><path d="m12 16h6v4h-6z"/><path d="m30 16h6v4h-6z"/><path d="m21 16h6v4h-6z"/><path d="m12 23h6v4h-6z"/><path d="m30 23h6v4h-6z"/><path d="m21 23h6v4h-6z"/><path d="m12 30h6v4h-6z"/><path d="m21 30h6v4h-6z"/><path d="m12 37h6v4h-6z"/><path d="m21 37h6v4h-6z"/></g><path d="m38 28 2.048 2.286 2.952-.953.667 3 3 .667-.953 2.952 2.286 2.048-2.286 2.048.953 2.952-3 .667-.667 3-2.952-.953-2.048 2.286-2.048-2.286-2.952.953-.667-3-3-.667.953-2.952-2.286-2.048 2.286-2.048-.953-2.952 3-.667.667-3 2.952.953z" fill="#a0f"/><path d="m35 40h-.857l-1.143-2.292v2.292h-1v-5h.857l1.143 2.417v-2.417h1zm7.52-2 .48-3h1l-1 5h-1l-.551-2.95-.449 2.95h-1l-1-5h1l.48 3 .52-3h1zm-4.52-2v-1h-2v2 1 2h2v-1h-1v-1h1v-1h-1v-1z" fill="#fff"/></svg>

<svg xmlns="http://www.w3.org/2000/svg" viewBox="0 0 48 48" width="50" height="50" fill="#666"><path fill="#29b6f6" d="M12 3H36V9H12z"/><path d="M40,45H8V8c0-1.105,0.895-2,2-2h28c1.105,0,2,0.895,2,2V45z" fill="#81d4fa"/><path fill="#29b6f6" d="M8 43H40V45H8z"/><path fill="#0288d1" d="M12 9H18V13H12z"/><path fill="#0288d1" d="M30 9H36V13H30z"/><path fill="#0288d1" d="M21 9H27V13H21z"/><path fill="#0288d1" d="M12 16H18V20H12z"/><path fill="#0288d1" d="M30 16H36V20H30z"/><path fill="#0288d1" d="M21 16H27V20H21z"/><path fill="#0288d1" d="M12 23H18V27H12z"/><path fill="#0288d1" d="M30 23H36V27H30z"/><path fill="#0288d1" d="M21 23H27V27H21z"/><path fill="#0288d1" d="M12 30H18V34H12z"/><path fill="#0288d1" d="M21 30H27V34H21z"/><path fill="#0288d1" d="M12 37H18V41H12z"/><path fill="#0288d1" d="M21 37H27V41H21z"/><path fill="#a0f" d="M38 28L40.048 30.286 43 29.333 43.667 32.333 46.667 33 45.714 35.952 48 38 45.714 40.048 46.667 43 43.667 43.667 43 46.667 40.048 45.714 38 48 35.952 45.714 33 46.667 32.333 43.667 29.333 43 30.286 40.048 28 38 30.286 35.952 29.333 33 32.333 32.333 33 29.333 35.952 30.286z"/><path d="M35,40h-0.857L33,37.708V40h-1v-5h0.857L34,37.417V35h1V40z M42.52,38L43,35h1l-1,5h-1l-0.551-2.95 L41,40h-1l-1-5h1l0.48,3L41,35h1L42.52,38z M38,36v-1h-2v2v1v2h2v-1h-1v-1h1v-1h-1v-1H38z" fill="#fff"/></svg>
